;FLAVOR:Marlin
;TIME:898
;Filament used: 0.419796m
;Layer height: 0.2
;MINX:90.2
;MINY:101.115
;MINZ:0.2
;MAXX:129.8
;MAXY:129.16
;MAXZ:12.4
;Generated with Cura_SteamEngine 4.8.0
M82 ;absolute extrusion mode
M201 X500.00 Y500.00 Z100.00 E5000.00 ;Setup machine max acceleration
M203 X500.00 Y500.00 Z10.00 E50.00 ;Setup machine max feedrate
M204 P500.00 R1000.00 T500.00 ;Setup Print/Retract/Travel acceleration
M205 X8.00 Y8.00 Z0.40 E5.00 ;Setup Jerk
M220 S100 ;Reset Feedrate
M221 S100 ;Reset Flowrate

;*** Start Preheating ***
G28 ; home
M140 S50 ; start preheating the bed
M104 S150 ﻿T0 ; preheat hotend to low temp to prevent oozing during probing
;*** End Preheating ***
G29 ; BLTouch levelling

G92 E0 ;Reset Extruder
G1 Z2.0 F3000 ;Move Z Axis up
G1 X5.1 Y20 Z0.5 F5000.0 ;Move to start (little higher for oozing)

M190 S50 ; heat to Cura Bed setting
M109 S215 ﻿T0 ; heat to Cura Hotend

G1 X5.1 Y30 Z0.28 F5000.0 ;Move to start position
G1 X5.1 Y120.0 Z0.28 F1500.0 E7.5 ;Draw the first line
G1 X5.4 Y120.0 Z0.28 F5000.0 ;Move to side a little
G1 X5.4 Y30 Z0.28 F1500.0 E15 ;Draw the second line
G92 E0 ;Reset Extruder
G1 Z2.0 F3000 ;Move Z Axis up

; M900 K0.9 ;Set linear advance (old)
M900 K0.24 ;Set linear advance (new)
G92 E0
G92 E0
G1 F2700 E-2.2
;LAYER_COUNT:62
;LAYER:0
M107
;MESH:pencil_holder5.stl
G0 F6000 X120.172 Y104.915 Z0.2
;TYPE:WALL-INNER
G1 F2700 E0
G1 F1200 X129 Y104.915 E0.26214
G1 X129 Y107.315 E0.33341
G1 X91 Y107.315 E1.46181
G1 X91 Y104.915 E1.53308
G1 X99.841 Y104.915 E1.79561
G1 X100.174 Y104.902 E1.8055
G1 X100.518 Y104.864 E1.81578
G1 X100.856 Y104.803 E1.82598
G1 X101.193 Y104.721 E1.83628
G1 X101.524 Y104.612 E1.84662
G1 X101.845 Y104.483 E1.8569
G1 X102.158 Y104.329 E1.86726
G1 X102.457 Y104.157 E1.8775
G1 X102.745 Y103.963 E1.88781
G1 X103.018 Y103.75 E1.89809
G1 X103.277 Y103.518 E1.90842
G1 X103.518 Y103.269 E1.91871
G1 X103.74 Y103.006 E1.92893
G1 X103.947 Y102.724 E1.93932
G1 X104.131 Y102.43 E1.94961
G1 X104.295 Y102.126 E1.95987
G1 X104.39 Y101.915 E1.96674
G1 X115.61 Y101.915 E2.29992
G1 X115.717 Y102.15 E2.30758
G1 X115.883 Y102.455 E2.3179
G1 X116.069 Y102.746 E2.32815
G1 X116.275 Y103.027 E2.3385
G1 X116.501 Y103.292 E2.34884
G1 X116.743 Y103.537 E2.35907
G1 X117.001 Y103.767 E2.36933
G1 X117.277 Y103.981 E2.3797
G1 X117.567 Y104.172 E2.39001
G1 X117.867 Y104.344 E2.40028
G1 X118.183 Y104.494 E2.41067
G1 X118.501 Y104.619 E2.42081
G1 X118.832 Y104.728 E2.43116
G1 X119.174 Y104.81 E2.4416
G1 X119.499 Y104.864 E2.45139
G1 X119.512 Y104.867 E2.45178
G1 X119.853 Y104.903 E2.46197
G1 X120.172 Y104.915 E2.47145
G0 F6000 X128.818 Y105.097
G0 X128.818 Y107.133
G0 X122.4 Y107.715
G1 F1200 X122.4 Y128.76 E3.09637
G1 X120 Y128.76 E3.16764
G1 X120 Y128.36 E3.17951
G1 X122 Y128.36 E3.2389
G1 X122 Y107.715 E3.85195
G1 X98 Y107.715 E4.56462
G1 X98 Y128.36 E5.17767
G1 X100 Y128.36 E5.23706
G1 X100 Y128.76 E5.24893
G1 X97.6 Y128.76 E5.3202
G1 X97.6 Y107.715 E5.94513
G1 X90.6 Y107.715 E6.15299
G1 X90.6 Y104.515 E6.24801
G1 X99.833 Y104.515 E6.52218
G1 X100.144 Y104.503 E6.53142
G1 X100.461 Y104.468 E6.54089
G1 X100.773 Y104.412 E6.55031
G1 X101.083 Y104.336 E6.55978
G1 X101.387 Y104.236 E6.56929
G1 X101.682 Y104.117 E6.57873
G1 X101.97 Y103.976 E6.58826
G1 X102.245 Y103.817 E6.59769
G1 X102.51 Y103.639 E6.60717
G1 X102.761 Y103.443 E6.61662
G1 X103 Y103.229 E6.62615
G1 X103.221 Y103.001 E6.63558
G1 X103.426 Y102.758 E6.64502
G1 X103.616 Y102.499 E6.65456
G1 X103.785 Y102.229 E6.66402
G1 X103.936 Y101.949 E6.67346
G1 X104.067 Y101.658 E6.68294
G1 X104.12 Y101.515 E6.68747
G1 X115.88 Y101.515 E7.03668
G1 X115.943 Y101.682 E7.04198
G1 X116.075 Y101.971 E7.05141
G1 X116.228 Y102.252 E7.06091
G1 X116.399 Y102.52 E7.07035
G1 X116.589 Y102.778 E7.07987
G1 X116.796 Y103.021 E7.08935
G1 X117.019 Y103.247 E7.09877
G1 X117.257 Y103.459 E7.10824
G1 X117.51 Y103.655 E7.11774
G1 X117.777 Y103.831 E7.12724
G1 X118.053 Y103.989 E7.13668
G1 X118.343 Y104.127 E7.14622
G1 X118.637 Y104.243 E7.1556
G1 X118.941 Y104.343 E7.16511
G1 X119.254 Y104.418 E7.17466
G1 X119.566 Y104.471 E7.18406
G1 X119.881 Y104.504 E7.19347
G1 X120.179 Y104.515 E7.20232
G1 X129.4 Y104.515 E7.47614
G1 X129.4 Y107.715 E7.57116
G1 X122.4 Y107.715 E7.77902
G0 F6000 X122.8 Y108.115
;TYPE:WALL-OUTER
G1 F1200 X122.8 Y129.16 E8.40395
G1 X119.6 Y129.16 E8.49897
G1 X119.6 Y127.96 E8.5346
G1 X121.6 Y127.96 E8.59399
G1 X121.6 Y108.115 E9.18328
G1 X98.4 Y108.115 E9.8722
G1 X98.4 Y127.96 E10.46149
G1 X100.4 Y127.96 E10.52088
G1 X100.4 Y129.16 E10.55651
G1 X97.2 Y129.16 E10.65153
G1 X97.2 Y108.115 E11.27646
G1 X90.2 Y108.115 E11.48432
G1 X90.2 Y104.115 E11.6031
G1 X99.825 Y104.115 E11.88891
G1 X100.114 Y104.104 E11.8975
G1 X100.404 Y104.072 E11.90616
G1 X100.69 Y104.021 E11.91479
G1 X100.972 Y103.951 E11.92342
G1 X101.25 Y103.86 E11.9321
G1 X101.519 Y103.751 E11.94072
G1 X101.782 Y103.623 E11.94941
G1 X102.033 Y103.478 E11.95801
G1 X102.275 Y103.315 E11.96668
G1 X102.504 Y103.136 E11.97531
G1 X102.722 Y102.941 E11.98399
G1 X102.924 Y102.732 E11.99263
G1 X103.112 Y102.51 E12.00126
G1 X103.285 Y102.274 E12.00995
G1 X103.439 Y102.028 E12.01857
G1 X103.577 Y101.772 E12.02721
G1 X103.697 Y101.506 E12.03587
G1 X103.798 Y101.233 E12.04452
G1 X103.833 Y101.115 E12.04817
G1 X116.167 Y101.115 E12.41443
G1 X116.209 Y101.256 E12.41879
G1 X116.312 Y101.528 E12.42743
G1 X116.433 Y101.792 E12.43605
G1 X116.573 Y102.049 E12.44474
G1 X116.729 Y102.294 E12.45337
G1 X116.902 Y102.529 E12.46203
G1 X117.091 Y102.75 E12.47067
G1 X117.295 Y102.957 E12.4793
G1 X117.513 Y103.151 E12.48797
G1 X117.743 Y103.329 E12.4966
G1 X117.987 Y103.49 E12.50528
G1 X118.239 Y103.634 E12.5139
G1 X118.503 Y103.76 E12.52259
G1 X118.773 Y103.867 E12.53121
G1 X119.05 Y103.958 E12.53987
G1 X119.334 Y104.026 E12.54854
G1 X119.62 Y104.075 E12.55716
G1 X119.909 Y104.105 E12.56579
G1 X120.186 Y104.115 E12.57402
G1 X129.8 Y104.115 E12.8595
G1 X129.8 Y108.115 E12.97828
G1 X122.8 Y108.115 E13.18614
G0 F6000 X122.5 Y108.115
G0 X122.467 Y107.135
G0 X128.818 Y107.133
G0 X128.818 Y105.097
G0 X120.169 Y105.026
G0 X120.165 Y105.305
;TYPE:SKIN
G1 F1200 X128.61 Y105.305 E13.43691
G1 X128.61 Y106.925 E13.48502
G1 X91.39 Y106.925 E14.59025
G1 X91.39 Y105.305 E14.63836
G1 X99.849 Y105.305 E14.88955
G1 X100.203 Y105.292 E14.90006
G1 X100.574 Y105.25 E14.91115
G1 X100.936 Y105.185 E14.92207
G1 X101.3 Y105.096 E14.9332
G1 X101.658 Y104.979 E14.94438
G1 X102.004 Y104.84 E14.95546
G1 X102.341 Y104.674 E14.96661
G1 X102.664 Y104.488 E14.97768
G1 X102.975 Y104.279 E14.98881
G1 X103.268 Y104.05 E14.99985
G1 X103.548 Y103.799 E15.01102
G1 X103.807 Y103.53 E15.0221
G1 X104.046 Y103.248 E15.03308
G1 X104.27 Y102.943 E15.04432
G1 X104.468 Y102.627 E15.05539
G1 X104.642 Y102.305 E15.06626
G1 X115.359 Y102.305 E15.3845
G1 X115.547 Y102.654 E15.39627
G1 X115.747 Y102.966 E15.40727
G1 X115.969 Y103.269 E15.41843
G1 X116.214 Y103.556 E15.42963
G1 X116.474 Y103.82 E15.44064
G1 X116.751 Y104.067 E15.45166
G1 X117.05 Y104.299 E15.46289
G1 X117.362 Y104.504 E15.47398
G1 X117.686 Y104.689 E15.48506
G1 X118.027 Y104.852 E15.49628
G1 X118.368 Y104.986 E15.50716
G1 X118.725 Y105.104 E15.51833
G1 X119.096 Y105.192 E15.52965
G1 X119.459 Y105.253 E15.54058
G1 X119.825 Y105.293 E15.55151
G1 X120.165 Y105.305 E15.56161
G0 F6000 X120.169 Y105.026
G0 X128.818 Y105.097
G0 X128.89 Y105.822
G0 X128.449 Y105.822
G1 F1200 X128.092 Y105.464 E15.57663
G0 F6000 X127.526 Y105.464
G1 F1200 X128.449 Y106.387 E15.61539
G0 F6000 X128.26 Y106.764
G1 F1200 X126.961 Y105.464 E15.66996
G0 F6000 X126.395 Y105.464
G1 F1200 X127.694 Y106.764 E15.72453
G0 F6000 X127.129 Y106.764
G1 F1200 X125.829 Y105.464 E15.77913
G0 F6000 X125.263 Y105.464
G1 F1200 X126.563 Y106.764 E15.83372
G0 F6000 X125.997 Y106.764
G1 F1200 X124.698 Y105.464 E15.88829
G0 F6000 X124.132 Y105.464
G1 F1200 X125.432 Y106.764 E15.94288
G0 F6000 X124.866 Y106.764
G1 F1200 X123.566 Y105.464 E15.99748
G0 F6000 X123.001 Y105.464
G1 F1200 X124.3 Y106.764 E16.05205
G0 F6000 X123.735 Y106.764
G1 F1200 X122.435 Y105.464 E16.10664
G0 F6000 X121.869 Y105.464
G1 F1200 X123.169 Y106.764 E16.16123
G0 F6000 X122.603 Y106.764
G1 F1200 X121.304 Y105.464 E16.21581
G0 F6000 X120.738 Y105.464
G1 F1200 X122.038 Y106.764 E16.2704
G0 F6000 X121.472 Y106.764
G1 F1200 X120.172 Y105.464 E16.32499
G0 F6000 X119.567 Y105.425
G1 F1200 X120.906 Y106.764 E16.38122
G0 F6000 X120.341 Y106.764
G1 F1200 X118.883 Y105.306 E16.44245
G0 F6000 X118.04 Y105.03
G1 F1200 X119.775 Y106.764 E16.51529
G0 F6000 X119.209 Y106.764
G1 F1200 X116.531 Y104.086 E16.62775
G0 F6000 X116.019 Y103.574
G1 F1200 X114.909 Y102.464 E16.67437
G0 F6000 X114.344 Y102.464
G1 F1200 X118.644 Y106.764 E16.85494
G0 F6000 X118.078 Y106.764
G1 F1200 X113.778 Y102.464 E17.03552
G0 F6000 X113.212 Y102.464
G1 F1200 X117.512 Y106.764 E17.2161
G0 F6000 X116.946 Y106.764
G1 F1200 X112.647 Y102.464 E17.39665
G0 F6000 X112.081 Y102.464
G1 F1200 X116.381 Y106.764 E17.57723
G0 F6000 X115.815 Y106.764
G1 F1200 X111.515 Y102.464 E17.75781
G0 F6000 X110.95 Y102.464
G1 F1200 X115.249 Y106.764 E17.93836
G0 F6000 X114.684 Y106.764
G1 F1200 X110.384 Y102.464 E18.11894
G0 F6000 X109.818 Y102.464
G1 F1200 X114.118 Y106.764 E18.29951
G0 F6000 X113.552 Y106.764
G1 F1200 X109.252 Y102.464 E18.48009
G0 F6000 X108.687 Y102.464
G1 F1200 X112.987 Y106.764 E18.66067
G0 F6000 X112.421 Y106.764
G1 F1200 X108.121 Y102.464 E18.84124
G0 F6000 X107.555 Y102.464
G1 F1200 X111.855 Y106.764 E19.02182
G0 F6000 X111.29 Y106.764
G1 F1200 X106.99 Y102.464 E19.2024
G0 F6000 X106.424 Y102.464
G1 F1200 X110.724 Y106.764 E19.38297
G0 F6000 X110.158 Y106.764
G1 F1200 X105.858 Y102.464 E19.56355
G0 F6000 X105.293 Y102.464
G1 F1200 X109.592 Y106.763 E19.74409
G0 F6000 X109.026 Y106.763
G1 F1200 X104.732 Y102.469 E19.92441
G0 F6000 X104.528 Y102.831
G1 F1200 X108.46 Y106.763 E20.08953
G0 F6000 X107.895 Y106.763
G1 F1200 X104.301 Y103.169 E20.24046
G0 F6000 X104.052 Y103.486
G1 F1200 X107.329 Y106.763 E20.37808
G0 F6000 X106.763 Y106.763
G1 F1200 X103.783 Y103.783 E20.50322
G0 F6000 X103.494 Y104.06
M104 S200
G1 F1200 X106.198 Y106.763 E20.61675
G0 F6000 X105.632 Y106.763
G1 F1200 X103.185 Y104.317 E20.71949
G0 F6000 X102.855 Y104.552
G1 F1200 X105.066 Y106.763 E20.81234
G0 F6000 X104.501 Y106.763
G1 F1200 X102.502 Y104.765 E20.89627
G0 F6000 X102.128 Y104.956
G1 F1200 X103.935 Y106.763 E20.97215
G0 F6000 X103.369 Y106.763
G1 F1200 X101.728 Y105.122 E21.04107
G0 F6000 X101.3 Y105.259
G1 F1200 X102.804 Y106.763 E21.10423
G0 F6000 X102.238 Y106.763
G1 F1200 X100.839 Y105.365 E21.16296
G0 F6000 X100.345 Y105.436
G1 F1200 X101.672 Y106.763 E21.21868
G0 F6000 X101.107 Y106.763
G1 F1200 X99.807 Y105.464 E21.27326
G0 F6000 X99.241 Y105.464
G1 F1200 X100.541 Y106.763 E21.32783
G0 F6000 X99.975 Y106.763
G1 F1200 X98.676 Y105.464 E21.38238
G0 F6000 X98.11 Y105.464
G1 F1200 X99.41 Y106.763 E21.43695
G0 F6000 X98.844 Y106.763
G1 F1200 X97.544 Y105.464 E21.49152
G0 F6000 X96.978 Y105.464
G1 F1200 X98.278 Y106.763 E21.54609
G0 F6000 X97.712 Y106.763
G1 F1200 X96.413 Y105.464 E21.60064
G0 F6000 X95.847 Y105.464
G1 F1200 X97.147 Y106.763 E21.65522
G0 F6000 X96.581 Y106.763
G1 F1200 X95.281 Y105.464 E21.70979
G0 F6000 X94.716 Y105.464
G1 F1200 X96.015 Y106.763 E21.76434
G0 F6000 X95.45 Y106.763
G1 F1200 X94.15 Y105.464 E21.81891
G0 F6000 X93.584 Y105.464
G1 F1200 X94.884 Y106.763 E21.87348
G0 F6000 X94.318 Y106.763
G1 F1200 X93.019 Y105.464 E21.92803
G0 F6000 X92.453 Y105.464
G1 F1200 X93.753 Y106.763 E21.98261
G0 F6000 X93.187 Y106.763
G1 F1200 X91.887 Y105.464 E22.03718
G0 F6000 X91.549 Y105.691
G1 F1200 X92.621 Y106.763 E22.0822
G0 F6000 X92.056 Y106.763
G1 F1200 X91.549 Y106.257 E22.10347
G0 F6000 X90.81 Y106.257
G1 F2700 E19.90347
;MESH:NONMESH
G0 F300 X90.81 Y106.257 Z0.4
G0 F6000 X91.182 Y105.097
G0 X102.845 Y104.101
G0 X104.504 Y102.092
G0 X115.496 Y102.092
G0 X116.485 Y102.907
G0 X120.172 Y104.915
;TIME_ELAPSED:49.778509
;LAYER:1
M106 S55.3
;TYPE:WALL-INNER
;MESH:pencil_holder5.stl
G1 F2700 E22.10347
G1 F1500 X129 Y104.915 E22.37653
G1 X129 Y107.315 E22.45077
G1 X91 Y107.315 E23.62618
G1 X91 Y104.915 E23.70042
G1 X99.865 Y104.914 E23.97463
G1 X100.201 Y104.9 E23.98503
G1 X100.548 Y104.86 E23.99584
G1 X100.885 Y104.797 E24.00644
G1 X101.222 Y104.711 E24.0172
G1 X101.552 Y104.601 E24.02796
G1 X101.871 Y104.47 E24.03863
G1 X102.183 Y104.315 E24.0494
G1 X102.482 Y104.14 E24.06012
G1 X102.768 Y103.946 E24.07081
G1 X103.041 Y103.73 E24.08158
G1 X103.296 Y103.497 E24.09226
G1 X103.536 Y103.248 E24.10296
G1 X103.758 Y102.982 E24.11368
G1 X103.961 Y102.701 E24.1244
G1 X104.145 Y102.405 E24.13518
G1 X104.307 Y102.1 E24.14586
G1 X104.39 Y101.915 E24.15213
G1 X115.609 Y101.915 E24.49916
G1 X115.712 Y102.138 E24.50676
G1 X115.874 Y102.442 E24.51741
G1 X116.062 Y102.737 E24.52823
G1 X116.267 Y103.015 E24.53892
G1 X116.491 Y103.281 E24.54967
G1 X116.734 Y103.528 E24.56039
G1 X116.992 Y103.759 E24.5711
G1 X117.267 Y103.972 E24.58186
G1 X117.555 Y104.164 E24.59257
G1 X117.854 Y104.337 E24.60325
G1 X118.169 Y104.488 E24.61406
G1 X118.49 Y104.616 E24.62475
G1 X118.819 Y104.724 E24.63546
G1 X119.157 Y104.808 E24.64623
G1 X119.484 Y104.863 E24.65649
G1 X119.497 Y104.866 E24.6569
G1 X119.842 Y104.903 E24.66764
G1 X120.172 Y104.915 E24.67785
G0 F7500 X128.818 Y105.097
G0 X128.818 Y107.133
G0 X122.4 Y107.715
G1 F1500 X122.4 Y128.76 E25.32881
G1 X120 Y128.76 E25.40305
G1 X120 Y128.36 E25.41542
G1 X122 Y128.36 E25.47729
G1 X122 Y107.715 E26.11587
G1 X98 Y107.715 E26.85824
G1 X98 Y128.36 E27.49683
G1 X100 Y128.36 E27.55869
G1 X100 Y128.76 E27.57107
G1 X97.6 Y128.76 E27.6453
G1 X97.6 Y107.715 E28.29627
G1 X90.6 Y107.715 E28.51279
G1 X90.6 Y104.515 E28.61177
G1 X99.857 Y104.514 E28.89811
G1 X100.17 Y104.501 E28.9078
G1 X100.488 Y104.464 E28.9177
G1 X100.799 Y104.406 E28.92749
G1 X101.109 Y104.327 E28.93738
G1 X101.412 Y104.226 E28.94726
G1 X101.706 Y104.105 E28.9571
G1 X101.993 Y103.963 E28.967
G1 X102.268 Y103.802 E28.97686
G1 X102.531 Y103.623 E28.9867
G1 X102.782 Y103.425 E28.99659
G1 X103.017 Y103.21 E29.00644
G1 X103.238 Y102.981 E29.01628
G1 X103.442 Y102.736 E29.02614
G1 X103.629 Y102.478 E29.036
G1 X103.798 Y102.206 E29.04591
G1 X103.947 Y101.925 E29.05574
G1 X104.077 Y101.634 E29.0656
G1 X104.12 Y101.515 E29.06952
G1 X115.879 Y101.515 E29.43325
G1 X115.937 Y101.671 E29.43839
G1 X116.07 Y101.96 E29.44823
G1 X116.22 Y102.24 E29.45806
G1 X116.392 Y102.511 E29.46799
G1 X116.581 Y102.767 E29.47783
G1 X116.787 Y103.011 E29.48771
G1 X117.011 Y103.239 E29.49759
G1 X117.248 Y103.452 E29.50745
G1 X117.5 Y103.647 E29.51731
G1 X117.766 Y103.824 E29.52719
G1 X118.041 Y103.983 E29.53702
G1 X118.33 Y104.122 E29.54694
G1 X118.626 Y104.24 E29.55679
G1 X118.929 Y104.339 E29.56665
G1 X119.239 Y104.416 E29.57653
G1 X119.552 Y104.47 E29.58636
G1 X119.87 Y104.504 E29.59625
G1 X120.179 Y104.515 E29.60581
G1 X129.4 Y104.515 E29.89104
G1 X129.4 Y107.715 E29.99002
G1 X122.4 Y107.715 E30.20654
G0 F7500 X122.8 Y108.115
;TYPE:WALL-OUTER
G1 F1500 X122.8 Y129.16 E30.8575
G1 X119.6 Y129.16 E30.95649
G1 X119.6 Y127.96 E30.9936
G1 X121.6 Y127.96 E31.05547
G1 X121.6 Y108.115 E31.66931
G1 X98.4 Y108.115 E32.38693
G1 X98.4 Y127.96 E33.00078
G1 X100.4 Y127.96 E33.06264
G1 X100.4 Y129.16 E33.09976
G1 X97.2 Y129.16 E33.19874
G1 X97.2 Y108.115 E33.8497
G1 X90.2 Y108.115 E34.06623
G1 X90.2 Y104.115 E34.18996
G1 X99.849 Y104.114 E34.48842
G1 X100.138 Y104.102 E34.49736
G1 X100.428 Y104.068 E34.5064
G1 X100.713 Y104.015 E34.51536
G1 X100.996 Y103.943 E34.5244
G1 X101.272 Y103.851 E34.53339
G1 X101.541 Y103.74 E34.5424
G1 X101.803 Y103.611 E34.55143
G1 X102.054 Y103.464 E34.56043
G1 X102.294 Y103.3 E34.56942
G1 X102.523 Y103.12 E34.57843
G1 X102.738 Y102.923 E34.58745
G1 X102.94 Y102.714 E34.59644
G1 X103.126 Y102.49 E34.60544
G1 X103.297 Y102.255 E34.61443
G1 X103.451 Y102.007 E34.62346
G1 X103.587 Y101.75 E34.63246
G1 X103.706 Y101.484 E34.64147
G1 X103.805 Y101.21 E34.65048
G1 X103.833 Y101.115 E34.65355
G1 X116.167 Y101.115 E35.03506
G1 X116.205 Y101.244 E35.03922
G1 X116.307 Y101.518 E35.04826
G1 X116.428 Y101.782 E35.05725
G1 X116.566 Y102.038 E35.06624
