; generated by PrusaSlicer 2.2.0+win64 on 2020-11-02 at 16:03:01 UTC

;

; external perimeters extrusion width = 0.45mm
; perimeters extrusion width = 0.45mm
; infill extrusion width = 0.45mm
; solid infill extrusion width = 0.45mm
; top infill extrusion width = 0.40mm
; first layer extrusion width = 0.42mm

M73 P0 R78
M201 X1250 Y1250 Z400 E5000 ; sets maximum accelerations, mm/sec^2
M203 X180 Y180 Z12 E100 ; sets maximum feedrates, mm/sec
M204 P1250 R1250 T1250 ; sets acceleration (P, T) and retract acceleration (R), mm/sec^2
M205 X8.00 Y8.00 Z2.00 E10.00 ; sets the jerk limits, mm/sec
M205 S0 T0 ; sets the minimum extruding and travel feed rate, mm/sec
M107
M569 S0 E
G90 ; use absolute coordinates
M83 ; extruder relative mode
M92 E317 ; set steps/unit for extruder
M104 S170 ; set extruder temp for bed leveling
M140 S85 ; set bed temp
M109 R170 ; wait for bed leveling temp
M190 S85 ; wait for bed temp
G28 ; home all without mesh bed level
G29 ; mesh bed leveling
M104 S240 ; set extruder temp
G92 E0.0
G1 Y-2.0 X179 F2400
G1 Z0.8 F720
M109 S240 ; wait for extruder temp

; intro line
G1 X170 F1000
G1 Z0.2 F720
G1 X110.0 E8.0 F800
M73 P0 R78
G1 X50.0 E12.0 F600
G92 E0.0

M221 S95 ; set flow
G21 ; set units to millimeters
G90 ; use absolute coordinates
M83 ; use relative distances for extrusion
M900 K0.2 ; Filament gcode
;BEFORE_LAYER_CHANGE
G92 E0.0
;0.2


G1 Z0.200 F9000.000
;AFTER_LAYER_CHANGE
;0.2
G1 E-3.20000 F4200.00000
G1 Z0.400 F9000.000
G1 X42.616 Y80.534
G1 Z0.200
G1 E3.20000 F2400.00000
M204 S800
G1 F1200.000
G1 X43.263 Y79.907 E0.02966
G1 X48.286 Y76.828 E0.19396
G1 X48.956 Y76.573 E0.02361
G1 X49.721 Y76.520 E0.02525
G1 X134.929 Y76.526 E2.80522
G1 X135.576 Y76.617 E0.02150
G1 X136.235 Y76.919 E0.02386
G1 X136.774 Y77.409 E0.02398
G1 X137.138 Y78.035 E0.02386
G1 X137.297 Y78.746 E0.02398
G1 X137.301 Y100.746 E0.72427
G1 X137.211 Y101.388 E0.02138
G1 X136.839 Y102.147 E0.02782
G1 X136.068 Y102.940 E0.03640
G1 X135.413 Y103.321 E0.02497
G1 X134.666 Y103.477 E0.02510
G1 X93.313 Y103.477 E1.36144
G1 X92.666 Y103.386 E0.02150
G1 X43.769 Y86.137 E1.70702
G1 X43.202 Y85.845 E0.02100
G1 X42.823 Y85.516 E0.01652
G1 X42.520 Y85.111 E0.01665
G1 X42.309 Y84.651 E0.01665
G1 X42.201 Y84.158 E0.01665
G1 X42.202 Y81.627 E0.08332
G1 X42.341 Y81.055 E0.01939
G1 X42.588 Y80.587 E0.01741
M204 S1250
G1 E-2.24000 F4200.00000
G1 F7200.000
G1 X43.263 Y79.907 E-0.53105
G1 X43.849 Y79.548 E-0.38095
G1 E-0.04800 F4200.00000
G1 Z0.400 F9000.000
G1 X50.685 Y79.933
G1 Z0.200
G1 E3.20000 F2400.00000
M204 S800
G1 F1200.000
G1 X50.685 Y79.861 E0.00236
G1 X133.696 Y79.867 E2.73288
G1 X133.696 Y79.939 E0.00236
G1 X50.745 Y79.933 E2.73091
M204 S1250
G1 E-2.24000 F4200.00000
G1 F7200.000
G1 X50.685 Y79.861 E-0.05180
G1 X52.238 Y79.862 E-0.86020
G1 E-0.04800 F4200.00000
G1 Z0.400 F9000.000
G1 X94.561 Y83.241
G1 Z0.200
G1 E3.20000 F2400.00000
M204 S800
G1 F1200.000
G1 X133.319 Y83.244 E1.27600
G1 X133.319 Y90.561 E0.24091
G1 X94.560 Y90.559 E1.27601
G1 X94.561 Y83.301 E0.23893
M204 S1250
G1 X94.184 Y82.936 F9000.000
M204 S800
G1 F1200.000
G1 X45.528 Y82.933 E1.60186
G1 X45.528 Y82.861 E0.00236
G1 X133.696 Y82.867 E2.90268
G1 X133.696 Y90.939 E0.26573
G1 X94.183 Y90.936 E1.30084
G1 X94.184 Y82.996 E0.26140
M204 S1250
G1 X93.807 Y83.313 F9000.000
M204 S800
G1 F1200.000
G1 X45.151 Y83.310 E1.60186
G1 X45.151 Y82.484 E0.02719
G1 X133.805 Y82.490 E2.91870
G1 X133.806 Y80.316 E0.07158
G1 X50.308 Y80.310 E2.74890
G1 X50.308 Y79.484 E0.02719
G1 X134.073 Y79.490 E2.75771
G1 X134.072 Y100.516 E0.69221
G1 X133.804 Y100.516 E0.00884
G1 X133.805 Y91.316 E0.30288
G1 X114.072 Y91.314 E0.64963
G1 X114.072 Y100.514 E0.30288
M73 P1 R77
G1 X113.805 Y100.514 E0.00879
G1 X113.805 Y91.314 E0.30288
G1 X94.071 Y91.313 E0.64968
G1 X94.071 Y100.513 E0.30288
G1 X93.805 Y100.513 E0.00875
G1 X93.807 Y83.373 E0.56428
M204 S1250
G1 X93.429 Y83.690 F9000.000
M204 S800
G1 F1200.000
G1 X44.773 Y83.687 E1.60186
G1 X44.773 Y82.107 E0.05202
G1 X133.428 Y82.113 E2.91870
G1 X133.428 Y80.693 E0.04675
G1 X49.931 Y80.687 E2.74890
G1 X49.931 Y79.107 E0.05202
G1 X134.450 Y79.113 E2.78254
G1 X134.449 Y100.893 E0.71704
G1 X133.427 Y100.893 E0.03367
G1 X133.428 Y91.693 E0.30288
G1 X114.449 Y91.691 E0.62481
G1 X114.449 Y100.891 E0.30288
G1 X113.556 Y100.891 E0.02937
G1 X113.427 Y100.891 E0.00425
G1 X113.428 Y91.691 E0.30288
G1 X94.448 Y91.690 E0.62485
G1 X94.448 Y100.890 E0.30288
G1 X93.428 Y100.890 E0.03358
G1 X93.429 Y83.750 E0.56428
M204 S1250
G1 X93.422 Y83.290 F9000.000
G1 E-2.24000 F4200.00000
G1 F7200.000
G1 X91.784 Y83.748 E-0.91200
G1 E-0.04800 F4200.00000
G1 Z0.400 F9000.000
G1 X133.206 Y84.126
G1 Z0.200
G1 E3.20000 F2400.00000
M204 S800
G1 F1200.000
G1 X132.607 Y83.527 E0.02812
G1 X132.069 Y83.527 E0.01784
G1 X133.036 Y84.494 E0.04539
G1 X133.036 Y85.031 E0.01784
G1 X131.531 Y83.527 E0.07062
G1 X130.994 Y83.527 E0.01784
G1 X133.036 Y85.569 E0.09586
G1 X133.036 Y86.106 E0.01784
G1 X130.456 Y83.527 E0.12109
G1 X129.918 Y83.527 E0.01784
G1 X133.036 Y86.644 E0.14633
G1 X133.036 Y87.182 E0.01784
G1 X129.381 Y83.527 E0.17156
G1 X128.843 Y83.526 E0.01784
G1 X133.036 Y87.719 E0.19680
G1 X133.036 Y88.257 E0.01784
G1 X128.306 Y83.526 E0.22203
G1 X127.768 Y83.526 E0.01784
G1 X133.036 Y88.794 E0.24726
G1 X133.036 Y89.332 E0.01784
G1 X127.230 Y83.526 E0.27250
G1 X126.693 Y83.526 E0.01784
G1 X133.036 Y89.870 E0.29773
G1 X133.036 Y90.279 E0.01358
G1 X132.907 Y90.279 E0.00426
G1 X126.155 Y83.526 E0.31694
G1 X125.617 Y83.526 E0.01784
G1 X132.370 Y90.279 E0.31694
G1 X131.832 Y90.279 E0.01784
G1 X125.080 Y83.526 E0.31694
G1 X124.542 Y83.526 E0.01784
G1 X131.294 Y90.279 E0.31694
G1 X130.757 Y90.279 E0.01784
G1 X124.004 Y83.526 E0.31694
G1 X123.467 Y83.526 E0.01784
G1 X130.219 Y90.278 E0.31694
G1 X129.681 Y90.278 E0.01784
G1 X122.929 Y83.526 E0.31694
G1 X122.391 Y83.526 E0.01784
G1 X129.144 Y90.278 E0.31694
G1 X128.606 Y90.278 E0.01784
G1 X121.854 Y83.526 E0.31694
G1 X121.316 Y83.526 E0.01784
G1 X128.069 Y90.278 E0.31694
G1 X127.531 Y90.278 E0.01784
G1 X120.779 Y83.526 E0.31694
G1 X120.241 Y83.526 E0.01784
G1 X126.993 Y90.278 E0.31694
G1 X126.456 Y90.278 E0.01784
G1 X119.703 Y83.526 E0.31694
G1 X119.166 Y83.526 E0.01784
G1 X125.918 Y90.278 E0.31694
G1 X125.380 Y90.278 E0.01784
G1 X118.628 Y83.526 E0.31694
G1 X118.090 Y83.526 E0.01784
G1 X124.843 Y90.278 E0.31694
G1 X124.305 Y90.278 E0.01784
G1 X117.553 Y83.526 E0.31694
G1 X117.015 Y83.526 E0.01784
G1 X123.767 Y90.278 E0.31694
G1 X123.230 Y90.278 E0.01784
G1 X116.477 Y83.526 E0.31694
G1 X115.940 Y83.526 E0.01784
G1 X122.692 Y90.278 E0.31694
G1 X122.154 Y90.278 E0.01784
G1 X115.402 Y83.526 E0.31694
G1 X114.864 Y83.526 E0.01784
G1 X121.617 Y90.278 E0.31694
G1 X121.079 Y90.278 E0.01784
G1 X114.327 Y83.526 E0.31694
G1 X113.789 Y83.525 E0.01784
G1 X120.542 Y90.278 E0.31694
G1 X120.004 Y90.278 E0.01784
G1 X113.252 Y83.525 E0.31694
G1 X112.714 Y83.525 E0.01784
G1 X119.466 Y90.278 E0.31694
G1 X118.929 Y90.278 E0.01784
G1 X112.176 Y83.525 E0.31694
G1 X111.639 Y83.525 E0.01784
G1 X118.391 Y90.278 E0.31694
G1 X117.853 Y90.278 E0.01784
G1 X111.101 Y83.525 E0.31694
G1 X110.563 Y83.525 E0.01784
G1 X117.316 Y90.278 E0.31694
G1 X116.778 Y90.278 E0.01784
G1 X110.026 Y83.525 E0.31694
G1 X109.488 Y83.525 E0.01784
G1 X116.240 Y90.278 E0.31694
G1 X115.703 Y90.278 E0.01784
G1 X108.950 Y83.525 E0.31694
G1 X108.413 Y83.525 E0.01784
G1 X115.165 Y90.277 E0.31694
G1 X114.627 Y90.277 E0.01784
G1 X107.875 Y83.525 E0.31694
G1 X107.337 Y83.525 E0.01784
G1 X114.090 Y90.277 E0.31694
G1 X113.552 Y90.277 E0.01784
G1 X106.800 Y83.525 E0.31694
G1 X106.262 Y83.525 E0.01784
G1 X113.015 Y90.277 E0.31694
G1 X112.477 Y90.277 E0.01784
G1 X105.725 Y83.525 E0.31694
G1 X105.187 Y83.525 E0.01784
G1 X111.939 Y90.277 E0.31694
G1 X111.402 Y90.277 E0.01784
G1 X104.649 Y83.525 E0.31694
G1 X104.112 Y83.525 E0.01784
G1 X110.864 Y90.277 E0.31694
G1 X110.326 Y90.277 E0.01784
G1 X103.574 Y83.525 E0.31694
G1 X103.036 Y83.525 E0.01784
G1 X109.789 Y90.277 E0.31694
G1 X109.251 Y90.277 E0.01784
G1 X102.499 Y83.525 E0.31694
G1 X101.961 Y83.525 E0.01784
G1 X108.713 Y90.277 E0.31694
G1 X108.176 Y90.277 E0.01784
G1 X101.423 Y83.525 E0.31694
G1 X100.886 Y83.525 E0.01784
G1 X107.638 Y90.277 E0.31694
G1 X107.100 Y90.277 E0.01784
G1 X100.348 Y83.525 E0.31694
G1 X99.810 Y83.525 E0.01784
G1 X106.563 Y90.277 E0.31694
G1 X106.025 Y90.277 E0.01784
G1 X99.273 Y83.525 E0.31694
G1 X98.735 Y83.524 E0.01784
G1 X105.488 Y90.277 E0.31694
G1 X104.950 Y90.277 E0.01784
G1 X98.198 Y83.524 E0.31694
G1 X97.660 Y83.524 E0.01784
G1 X104.412 Y90.277 E0.31694
G1 X103.875 Y90.277 E0.01784
G1 X97.122 Y83.524 E0.31694
G1 X96.585 Y83.524 E0.01784
G1 X103.337 Y90.277 E0.31694
G1 X102.799 Y90.277 E0.01784
G1 X96.047 Y83.524 E0.31694
G1 X95.509 Y83.524 E0.01784
G1 X102.262 Y90.277 E0.31694
G1 X101.724 Y90.277 E0.01784
G1 X94.972 Y83.524 E0.31694
G1 X94.844 Y83.524 E0.00425
G1 X94.843 Y83.934 E0.01359
G1 X101.186 Y90.277 E0.29772
G1 X100.649 Y90.277 E0.01784
G1 X94.843 Y84.471 E0.27248
G1 X94.843 Y85.009 E0.01784
G1 X100.111 Y90.276 E0.24725
M73 P2 R76
G1 X99.573 Y90.276 E0.01784
G1 X94.843 Y85.546 E0.22202
G1 X94.843 Y86.084 E0.01784
G1 X99.036 Y90.276 E0.19678
G1 X98.498 Y90.276 E0.01784
G1 X94.843 Y86.621 E0.17155
G1 X94.843 Y87.159 E0.01784
G1 X97.961 Y90.276 E0.14632
G1 X97.423 Y90.276 E0.01784
G1 X94.843 Y87.697 E0.12108
G1 X94.843 Y88.234 E0.01784
G1 X96.885 Y90.276 E0.09585
G1 X96.348 Y90.276 E0.01784
G1 X94.843 Y88.772 E0.07062
G1 X94.843 Y89.309 E0.01784
G1 X95.810 Y90.276 E0.04538
G1 X95.272 Y90.276 E0.01784
G1 X94.673 Y89.677 E0.02811
M204 S1250
;BEFORE_LAYER_CHANGE
G92 E0.0
;0.31


G1 Z0.310 F9000.000
;AFTER_LAYER_CHANGE
;0.31
M104 S250 ; set temperature
M140 S90 ; set bed temperature
G1 E-3.20000 F4200.00000
G1 Z0.510 F9000.000
G1 X135.413 Y103.321
G1 Z0.310
G1 E3.20000 F2400.00000
G1 X134.666 Y103.477 E0.01451
G1 X93.313 Y103.477 E0.78715
G1 X92.666 Y103.386 E0.01243
G1 X43.769 Y86.137 E0.98695
G1 X43.202 Y85.845 E0.01214
G1 X42.823 Y85.516 E0.00955
G1 X42.520 Y85.111 E0.00962
G1 X42.309 Y84.651 E0.00962
G1 X42.201 Y84.158 E0.00962
G1 X42.202 Y81.627 E0.04817
G1 X42.341 Y81.055 E0.01121
G1 X42.616 Y80.534 E0.01121
G1 X43.263 Y79.907 E0.01715
G1 X48.286 Y76.828 E0.11214
G1 X48.956 Y76.573 E0.01365
G1 X49.721 Y76.520 E0.01460
G1 X134.929 Y76.526 E1.62190
G1 X135.576 Y76.617 E0.01243
G1 X136.235 Y76.919 E0.01379
G1 X136.774 Y77.409 E0.01387
G1 X137.138 Y78.035 E0.01379
G1 X137.297 Y78.746 E0.01387
G1 X137.301 Y100.746 E0.41875
G1 X137.211 Y101.388 E0.01236
G1 X136.839 Y102.147 E0.01608
G1 X136.068 Y102.940 E0.02104
G1 X135.464 Y103.291 E0.01330
G1 E-2.24000 F4200.00000
G1 F7200.000
G1 X134.666 Y103.477 E-0.45411
G1 X133.840 Y103.477 E-0.45789
G1 E-0.04800 F4200.00000
G1 Z0.510 F9000.000
G1 X133.311 Y90.399
G1 Z0.310
G1 E3.20000 F2400.00000
M204 S800
G1 X94.568 Y90.396 E0.79326
G1 X94.569 Y83.404 E0.14315
G1 X133.311 Y83.407 E0.79325
G1 X133.311 Y90.339 E0.14193
M204 S1250
G1 X133.737 Y90.825 F9000.000
M204 S800
G1 F2400.000
G1 X94.142 Y90.822 E0.81072
G1 X94.142 Y82.978 E0.16061
G1 X133.737 Y82.981 E0.81072
G1 X133.737 Y90.765 E0.15939
M204 S1250
G1 X133.714 Y91.251 F9000.000
M204 S800
G1 F2400.000
G1 X114.163 Y91.250 E0.40031
G1 X114.162 Y100.450 E0.18837
G1 X113.714 Y100.450 E0.00918
G1 X113.715 Y91.250 E0.18837
G1 X94.162 Y91.249 E0.40034
G1 X94.162 Y100.449 E0.18837
G1 X93.714 Y100.449 E0.00916
G1 X93.716 Y83.249 E0.35217
G1 X45.219 Y83.246 E0.99297
G1 X45.219 Y82.548 E0.01428
G1 X133.715 Y82.554 E1.81195
G1 X133.715 Y80.251 E0.04715
G1 X50.218 Y80.246 E1.70962
G1 X50.218 Y79.549 E0.01428
G1 X134.164 Y79.554 E1.71881
G1 X134.163 Y100.451 E0.42787
G1 X133.713 Y100.451 E0.00921
G1 X133.714 Y91.311 E0.18714
M204 S1250
G1 X133.288 Y91.678 F9000.000
M204 S800
G1 F1800.000
G1 X114.589 Y91.676 E0.38285
G1 X114.589 Y100.876 E0.18837
G1 X113.931 Y100.876 E0.01347
G1 X113.287 Y100.876 E0.01317
G1 X113.288 Y91.676 E0.18837
G1 X94.588 Y91.675 E0.38288
G1 X94.588 Y100.753 E0.18587
G1 X94.466 Y100.875 E0.00353
G1 X93.410 Y100.875 E0.02163
G1 X93.288 Y100.753 E0.00353
G1 X93.289 Y83.675 E0.34968
G1 X44.793 Y83.672 E0.99297
G1 X44.793 Y82.122 E0.03174
G1 X133.288 Y82.128 E1.81195
G1 X133.288 Y80.678 E0.02969
G1 X49.791 Y80.672 E1.70962
G1 X49.791 Y79.122 E0.03174
G1 X134.590 Y79.128 E1.73627
G1 X134.589 Y100.755 E0.44281
G1 X134.466 Y100.878 E0.00357
G1 X133.410 Y100.878 E0.02163
G1 X133.287 Y100.755 E0.00357
G1 X133.288 Y91.738 E0.18462
M204 S1250
G1 X133.286 Y91.278 F9000.000
G1 E-2.24000 F4200.00000
G1 F7200.000
G1 X131.642 Y91.732 E-0.91200
G1 E-0.04800 F4200.00000
G1 Z0.510 F9000.000
G1 X132.319 Y90.271
G1 Z0.310
G1 E3.20000 F2400.00000
M204 S800
G1 X132.991 Y89.599 E0.01949
G1 X132.991 Y88.995 E0.01239
G1 X131.907 Y90.079 E0.03145
G1 X131.303 Y90.079 E0.01239
G1 X132.991 Y88.391 E0.04897
G1 X132.991 Y87.786 E0.01239
G1 X130.699 Y90.079 E0.06650
G1 X130.095 Y90.079 E0.01239
G1 X132.991 Y87.182 E0.08402
G1 X132.991 Y86.578 E0.01239
G1 X129.491 Y90.078 E0.10155
G1 X128.887 Y90.078 E0.01239
G1 X132.991 Y85.974 E0.11907
G1 X132.991 Y85.370 E0.01239
G1 X128.282 Y90.078 E0.13660
G1 X127.678 Y90.078 E0.01239
G1 X132.991 Y84.766 E0.15412
G1 X132.991 Y84.161 E0.01239
G1 X127.074 Y90.078 E0.17165
G1 X126.470 Y90.078 E0.01239
G1 X132.822 Y83.727 E0.18426
G1 X132.218 Y83.727 E0.01239
G1 X125.866 Y90.078 E0.18426
G1 X125.262 Y90.078 E0.01239
G1 X131.614 Y83.727 E0.18426
G1 X131.009 Y83.727 E0.01239
G1 X124.658 Y90.078 E0.18426
G1 X124.054 Y90.078 E0.01239
G1 X130.405 Y83.727 E0.18426
G1 X129.801 Y83.726 E0.01239
G1 X123.450 Y90.078 E0.18426
G1 X122.846 Y90.078 E0.01239
G1 X129.197 Y83.726 E0.18426
G1 X128.593 Y83.726 E0.01239
G1 X122.242 Y90.078 E0.18426
G1 X121.637 Y90.078 E0.01239
G1 X127.989 Y83.726 E0.18426
G1 X127.385 Y83.726 E0.01239
G1 X121.033 Y90.078 E0.18426
G1 X120.429 Y90.078 E0.01239
G1 X126.781 Y83.726 E0.18426
G1 X126.177 Y83.726 E0.01239
G1 X119.825 Y90.078 E0.18426
G1 X119.221 Y90.078 E0.01239
G1 X125.573 Y83.726 E0.18426
G1 X124.969 Y83.726 E0.01239
G1 X118.617 Y90.078 E0.18426
G1 X118.013 Y90.078 E0.01239
G1 X124.365 Y83.726 E0.18426
G1 X123.760 Y83.726 E0.01239
G1 X117.409 Y90.078 E0.18426
G1 X116.805 Y90.078 E0.01239
G1 X123.156 Y83.726 E0.18426
G1 X122.552 Y83.726 E0.01239
G1 X116.201 Y90.078 E0.18426
G1 X115.597 Y90.078 E0.01239
G1 X121.948 Y83.726 E0.18426
G1 X121.344 Y83.726 E0.01239
G1 X114.992 Y90.078 E0.18426
G1 X114.388 Y90.077 E0.01239
G1 X120.740 Y83.726 E0.18426
G1 X120.136 Y83.726 E0.01239
G1 X113.784 Y90.077 E0.18426
G1 X113.180 Y90.077 E0.01239
G1 X119.532 Y83.726 E0.18426
G1 X118.928 Y83.726 E0.01239
G1 X112.576 Y90.077 E0.18426
G1 X111.972 Y90.077 E0.01239
G1 X118.324 Y83.726 E0.18426
G1 X117.720 Y83.726 E0.01239
G1 X111.368 Y90.077 E0.18426
G1 X110.764 Y90.077 E0.01239
G1 X117.115 Y83.726 E0.18426
G1 X116.511 Y83.726 E0.01239
G1 X110.160 Y90.077 E0.18426
G1 X109.556 Y90.077 E0.01239
G1 X115.907 Y83.726 E0.18426
G1 X115.303 Y83.726 E0.01239
G1 X108.952 Y90.077 E0.18426
G1 X108.347 Y90.077 E0.01239
G1 X114.699 Y83.725 E0.18426
G1 X114.095 Y83.725 E0.01239
G1 X107.743 Y90.077 E0.18426
G1 X107.139 Y90.077 E0.01239
G1 X113.491 Y83.725 E0.18426
G1 X112.887 Y83.725 E0.01239
G1 X106.535 Y90.077 E0.18426
G1 X105.931 Y90.077 E0.01239
G1 X112.283 Y83.725 E0.18426
G1 X111.679 Y83.725 E0.01239
G1 X105.327 Y90.077 E0.18426
G1 X104.723 Y90.077 E0.01239
G1 X111.075 Y83.725 E0.18426
G1 X110.470 Y83.725 E0.01239
G1 X104.119 Y90.077 E0.18426
G1 X103.515 Y90.077 E0.01239
G1 X109.866 Y83.725 E0.18426
G1 X109.262 Y83.725 E0.01239
G1 X102.911 Y90.077 E0.18426
G1 X102.307 Y90.077 E0.01239
G1 X108.658 Y83.725 E0.18426
G1 X108.054 Y83.725 E0.01239
G1 X101.703 Y90.077 E0.18426
G1 X101.098 Y90.077 E0.01239
G1 X107.450 Y83.725 E0.18426
G1 X106.846 Y83.725 E0.01239
G1 X100.494 Y90.077 E0.18426
G1 X99.890 Y90.077 E0.01239
G1 X106.242 Y83.725 E0.18426
G1 X105.638 Y83.725 E0.01239
G1 X99.286 Y90.076 E0.18426
G1 X98.682 Y90.076 E0.01239
G1 X105.034 Y83.725 E0.18426
G1 X104.430 Y83.725 E0.01239
G1 X98.078 Y90.076 E0.18426
G1 X97.474 Y90.076 E0.01239
G1 X103.825 Y83.725 E0.18426
G1 X103.221 Y83.725 E0.01239
