; generated by PrusaSlicer 2.6.1+linux-x64-GTK3 on 2023-10-20 at 08:01:08 UTC


;
;

;
;
;

; external perimeters extrusion width = 0.45mm
; perimeters extrusion width = 0.45mm
; infill extrusion width = 0.45mm
; solid infill extrusion width = 0.45mm
; top infill extrusion width = 0.40mm
; first layer extrusion width = 0.42mm

M73 P0 R60
M201 X2500 Y2500 Z400 E5000 ; sets maximum accelerations, mm/sec^2
M203 X180 Y180 Z12 E80 ; sets maximum feedrates, mm / sec
M204 P2000 R1250 T2500 ; sets acceleration (P, T) and retract acceleration (R), mm/sec^2
M205 X8.00 Y8.00 Z2.00 E10.00 ; sets the jerk limits, mm/sec
M205 S0 T0 ; sets the minimum extruding and travel feed rate, mm/sec
;TYPE:Custom
M862.3 P "MINI" ; printer model check
G90 ; use absolute coordinates
M83 ; extruder relative mode
M104 S170 ; set extruder temp for bed leveling
M140 S85 ; set bed temp
M109 R170 ; wait for bed leveling temp
M190 S85 ; wait for bed temp
M204 T1250 ; set travel acceleration
G28 ; home all without mesh bed level
G29 ; mesh bed leveling
M204 T2500 ; restore travel acceleration
M104 S220 ; set extruder temp
G92 E0
G1 Y-2 X179 F2400
G1 Z3 F720
M109 S220 ; wait for extruder temp

; intro line
G1 X170 F1000
G1 Z0.2 F720
G1 X110 E8 F900
G1 X40 E10 F700
G92 E0

M221 S95 ; set flow
G21 ; set units to millimeters
G90 ; use absolute coordinates
M83 ; use relative distances for extrusion
M900 K0.2 ; Filament gcode
M107
;LAYER_CHANGE
;Z:0.2
;HEIGHT:0.2
;BEFORE_LAYER_CHANGE
G92 E0.0
;0.2


G1 E-3.2 F2700
G1 Z.2 F720
;AFTER_LAYER_CHANGE
; after layer change start
G1 E-1 F2100 ; retract before photo to avoid oozing

; take a photo start
; this is Prusa Mini+ specific
G1 X90 Y180 F9000 ; move head back in the middle
G4 S0 ; Wait for move to finish

G1 X180 Y180 ; trigger button activation
G4 S0 ; Wait for move to finish
G4 P3500 ; Wait for image capture in miliseconds

G1 X90 Y180 ; move head back in the middle
G4 S0 ; Wait for move to finish
; take a photo end
G1 E1 F2100 ; revert rectraction after photo
;after layer change end
;0.2
; printing object AIl_In_One_3D_printer_test_nano.stl id:0 copy 0
G1 Z.4 F720
G1 X65.787 Y85.787 F9000
G1 Z.2 F720
G1 E3.2 F1500
M204 P600
;TYPE:Perimeter
;WIDTH:0.419999
G1 F1200
G1 X114.213 Y85.787 E1.51836
G1 X114.213 Y94.213 E.26419
M73 P0 R59
G1 X65.787 Y94.213 E1.51836
G1 X65.787 Y85.847 E.26231
M204 P1000
G1 X65.41 Y85.41 F9000
M204 P600
;TYPE:External perimeter
G1 F1200
G1 X114.59 Y85.41 E1.542
G1 X114.59 Y94.59 E.28783
G1 X65.41 Y94.59 E1.542
G1 X65.41 Y85.47 E.28595
M204 P1000
G1 X65.809 Y85.435 F9000
G1 E-3.2 F2700
G1 Z.4 F720
G1 X114.043 Y86.723 F9000
G1 Z.2 F720
G1 E3.2 F1500
M204 P600
;TYPE:Solid infill
;WIDTH:0.421716
G1 F1200
G1 X113.447 Y86.126 E.02657
G1 X112.911 Y86.126 E.01688
G1 X113.874 Y87.089 E.0429
G1 X113.874 Y87.624 E.01685
G1 X112.376 Y86.126 E.06673
G1 X111.84 Y86.126 E.01688
G1 X113.874 Y88.16 E.0906
G1 X113.874 Y88.696 E.01688
G1 X111.304 Y86.126 E.11448
G1 X110.769 Y86.126 E.01685
G1 X113.874 Y89.231 E.13831
G1 X113.874 Y89.767 E.01688
G1 X110.233 Y86.126 E.16218
G1 X109.697 Y86.126 E.01688
G1 X113.874 Y90.303 E.18606
G1 X113.874 Y90.839 E.01688
G1 X109.161 Y86.126 E.20993
G1 X108.626 Y86.126 E.01685
G1 X113.874 Y91.374 E.23376
G1 X113.874 Y91.91 E.01688
G1 X108.09 Y86.126 E.25764
G1 X107.554 Y86.126 E.01688
G1 X113.874 Y92.446 E.28151
G1 X113.874 Y92.981 E.01685
G1 X107.019 Y86.126 E.30535
G1 X106.483 Y86.126 E.01688
G1 X113.874 Y93.517 E.32922
G1 X113.874 Y93.874 E.01124
G1 X113.694 Y93.874 E.00567
G1 X105.947 Y86.126 E.3451
G1 X105.412 Y86.126 E.01685
M73 P1 R59
G1 X113.159 Y93.874 E.3451
G1 X112.623 Y93.874 E.01688
G1 X104.876 Y86.126 E.3451
G1 X104.34 Y86.126 E.01688
G1 X112.087 Y93.874 E.3451
G1 X111.552 Y93.874 E.01685
G1 X103.804 Y86.126 E.34512
G1 X103.269 Y86.126 E.01685
G1 X111.016 Y93.874 E.3451
G1 X110.48 Y93.874 E.01688
G1 X102.733 Y86.126 E.3451
G1 X102.197 Y86.126 E.01688
G1 X109.944 Y93.874 E.3451
G1 X109.409 Y93.874 E.01685
G1 X101.662 Y86.126 E.3451
G1 X101.126 Y86.126 E.01688
G1 X108.873 Y93.874 E.3451
G1 X108.337 Y93.874 E.01688
G1 X100.59 Y86.126 E.3451
G1 X100.055 Y86.126 E.01685
G1 X107.802 Y93.874 E.3451
G1 X107.266 Y93.874 E.01688
G1 X99.519 Y86.126 E.3451
G1 X98.983 Y86.126 E.01688
G1 X106.73 Y93.874 E.3451
G1 X106.195 Y93.874 E.01685
G1 X98.447 Y86.126 E.34512
G1 X97.912 Y86.126 E.01685
G1 X105.659 Y93.874 E.3451
G1 X105.123 Y93.874 E.01688
G1 X97.376 Y86.126 E.3451
G1 X96.84 Y86.126 E.01688
G1 X104.587 Y93.874 E.3451
G1 X104.052 Y93.874 E.01685
G1 X96.305 Y86.126 E.3451
G1 X95.769 Y86.126 E.01688
G1 X103.516 Y93.874 E.3451
G1 X102.98 Y93.874 E.01688
G1 X95.233 Y86.126 E.3451
G1 X94.698 Y86.126 E.01685
G1 X102.445 Y93.874 E.3451
G1 X101.909 Y93.874 E.01688
G1 X94.162 Y86.126 E.3451
G1 X93.626 Y86.126 E.01688
G1 X101.373 Y93.874 E.3451
G1 X100.838 Y93.874 E.01685
G1 X93.09 Y86.126 E.34512
G1 X92.555 Y86.126 E.01685
G1 X100.302 Y93.874 E.3451
G1 X99.766 Y93.874 E.01688
G1 X92.019 Y86.126 E.3451
G1 X91.483 Y86.126 E.01688
G1 X99.23 Y93.874 E.3451
G1 X98.695 Y93.874 E.01685
G1 X90.948 Y86.126 E.3451
G1 X90.412 Y86.126 E.01688
G1 X98.159 Y93.874 E.3451
G1 X97.623 Y93.874 E.01688
G1 X89.876 Y86.126 E.3451
G1 X89.341 Y86.126 E.01685
G1 X97.088 Y93.874 E.3451
G1 X96.552 Y93.874 E.01688
G1 X88.805 Y86.126 E.3451
G1 X88.269 Y86.126 E.01688
G1 X96.016 Y93.874 E.3451
G1 X95.481 Y93.874 E.01685
G1 X87.733 Y86.126 E.34512
G1 X87.198 Y86.126 E.01685
G1 X94.945 Y93.874 E.3451
G1 X94.409 Y93.874 E.01688
G1 X86.662 Y86.126 E.3451
G1 X86.126 Y86.126 E.01688
G1 X93.873 Y93.874 E.3451
G1 X93.338 Y93.874 E.01685
G1 X85.591 Y86.126 E.3451
G1 X85.055 Y86.126 E.01688
G1 X92.802 Y93.874 E.3451
G1 X92.266 Y93.874 E.01688
G1 X84.519 Y86.126 E.3451
G1 X83.984 Y86.126 E.01685
G1 X91.731 Y93.874 E.3451
G1 X91.195 Y93.874 E.01688
G1 X83.448 Y86.126 E.3451
G1 X82.912 Y86.126 E.01688
G1 X90.659 Y93.874 E.3451
G1 X90.124 Y93.874 E.01685
G1 X82.377 Y86.126 E.3451
G1 X81.841 Y86.126 E.01688
G1 X89.588 Y93.874 E.3451
G1 X89.052 Y93.874 E.01688
G1 X81.305 Y86.126 E.3451
G1 X80.769 Y86.126 E.01688
G1 X88.517 Y93.874 E.34512
G1 X87.981 Y93.874 E.01688
G1 X80.234 Y86.126 E.3451
G1 X79.698 Y86.126 E.01688
G1 X87.445 Y93.874 E.3451
G1 X86.909 Y93.874 E.01688
G1 X79.162 Y86.126 E.3451
G1 X78.627 Y86.126 E.01685
G1 X86.374 Y93.874 E.3451
G1 X85.838 Y93.874 E.01688
G1 X78.091 Y86.126 E.3451
G1 X77.555 Y86.126 E.01688
G1 X85.302 Y93.874 E.3451
G1 X84.767 Y93.874 E.01685
G1 X77.02 Y86.126 E.3451
G1 X76.484 Y86.126 E.01688
G1 X84.231 Y93.874 E.3451
G1 X83.695 Y93.874 E.01688
G1 X75.948 Y86.126 E.3451
G1 X75.412 Y86.126 E.01688
G1 X83.16 Y93.874 E.34512
G1 X82.624 Y93.874 E.01688
G1 X74.877 Y86.126 E.3451
G1 X74.341 Y86.126 E.01688
G1 X82.088 Y93.874 E.3451
G1 X81.552 Y93.874 E.01688
G1 X73.805 Y86.126 E.3451
G1 X73.27 Y86.126 E.01685
G1 X81.017 Y93.874 E.3451
G1 X80.481 Y93.874 E.01688
M73 P2 R59
G1 X72.734 Y86.126 E.3451
G1 X72.198 Y86.126 E.01688
G1 X79.945 Y93.874 E.3451
G1 X79.41 Y93.874 E.01685
G1 X71.663 Y86.126 E.3451
G1 X71.127 Y86.126 E.01688
G1 X78.874 Y93.874 E.3451
G1 X78.338 Y93.874 E.01688
G1 X70.591 Y86.126 E.3451
G1 X70.055 Y86.126 E.01688
G1 X77.803 Y93.874 E.34512
G1 X77.267 Y93.874 E.01688
G1 X69.52 Y86.126 E.3451
G1 X68.984 Y86.126 E.01688
G1 X76.731 Y93.874 E.3451
G1 X76.195 Y93.874 E.01688
G1 X68.448 Y86.126 E.3451
G1 X67.913 Y86.126 E.01685
G1 X75.66 Y93.874 E.3451
G1 X75.124 Y93.874 E.01688
G1 X67.377 Y86.126 E.3451
G1 X66.841 Y86.126 E.01688
G1 X74.588 Y93.874 E.3451
G1 X74.053 Y93.874 E.01685
G1 X66.306 Y86.126 E.3451
G1 X66.126 Y86.126 E.00567
G1 X66.126 Y86.483 E.01124
G1 X73.517 Y93.874 E.32922
G1 X72.981 Y93.874 E.01688
G1 X66.126 Y87.019 E.30535
G1 X66.126 Y87.554 E.01685
M73 P2 R58
G1 X72.446 Y93.874 E.28151
G1 X71.91 Y93.874 E.01688
G1 X66.126 Y88.09 E.25764
G1 X66.126 Y88.626 E.01688
G1 X71.374 Y93.874 E.23376
G1 X70.838 Y93.874 E.01688
G1 X66.126 Y89.162 E.20989
G1 X66.126 Y89.697 E.01685
G1 X70.303 Y93.874 E.18606
G1 X69.767 Y93.874 E.01688
G1 X66.126 Y90.233 E.16218
G1 X66.126 Y90.769 E.01688
G1 X69.231 Y93.874 E.13831
G1 X68.696 Y93.874 E.01685
G1 X66.126 Y91.304 E.11448
G1 X66.126 Y91.84 E.01688
G1 X68.16 Y93.874 E.0906
G1 X67.624 Y93.874 E.01688
G1 X66.126 Y92.376 E.06673
G1 X66.126 Y92.911 E.01685
G1 X67.089 Y93.874 E.0429
G1 X66.553 Y93.874 E.01688
G1 X65.957 Y93.277 E.02657
M204 P1000
; stop printing object AIl_In_One_3D_printer_test_nano.stl id:0 copy 0
;LAYER_CHANGE
;Z:0.4
;HEIGHT:0.2
;BEFORE_LAYER_CHANGE
G92 E0.0
;0.4


G1 E-2.24 F2700
;WIPE_START
G1 F7200
G1 X66.553 Y93.874 E-.30052
G1 X67.089 Y93.874 E-.19095
G1 X66.159 Y92.944 E-.46853
;WIPE_END
G1 Z.4 F720
;AFTER_LAYER_CHANGE
; after layer change start
G1 E-1 F2100 ; retract before photo to avoid oozing

; take a photo start
; this is Prusa Mini+ specific
G1 X90 Y180 F9000 ; move head back in the middle
G4 S0 ; Wait for move to finish

G1 X180 Y180 ; trigger button activation
G4 S0 ; Wait for move to finish
G4 P3500 ; Wait for image capture in miliseconds

G1 X90 Y180 ; move head back in the middle
G4 S0 ; Wait for move to finish
; take a photo end
G1 E1 F2100 ; revert rectraction after photo
;after layer change end
;0.4
M140 S90 ; set bed temperature
; printing object AIl_In_One_3D_printer_test_nano.stl id:0 copy 0
G1 Z.6 F720
G1 X65.632 Y85.632 F9000
G1 Z.4 F720
G1 E3.2 F1500
;TYPE:Perimeter
;WIDTH:0.449999
G1 F3000
G1 X114.368 Y85.632 E1.64965
G1 X114.368 Y94.368 E.2957
G1 X65.632 Y94.368 E1.64965
G1 X65.632 Y85.692 E.29367
G1 X65.225 Y85.225 F9000
M204 P800
;TYPE:External perimeter
G1 F2399.995

G1 X65.675 Y85.225 E.01523
G1 X114.325 Y85.225 E1.64674
G1 X114.775 Y85.225 E.01523
G1 X114.775 Y85.675 E.01523
G1 X114.775 Y94.325 E.29279
G1 X114.775 Y94.775 E.01523
G1 X114.325 Y94.775 E.01523
G1 X65.675 Y94.775 E1.64674
G1 X65.225 Y94.775 E.01523
G1 X65.225 Y94.325 E.01523
G1 X65.225 Y85.735 E.29076
G1 X65.225 Y85.285 E.01523

M204 P1000
G1 X65.624 Y85.25 F9000
G1 E-2.24 F2700
;WIPE_START
G1 F7200
G1 X67.92 Y85.282 E-.96
;WIPE_END
G1 Z.6 F720
G1 X66.109 Y86.031 F9000
G1 Z.4 F720
G1 E3.2 F1500
M204 P1500
;TYPE:Solid infill
;WIDTH:0.548766
G1 F4151.461
G1 X66.064 Y85.987 E.00265
G1 X66.003 Y86.003 E.00265
G1 X65.987 Y86.064 E.00265
G1 X66.031 Y86.109 E.00265
G1 X66.093 Y86.093 E.00269
;WIDTH:0.449999
G1 F5158.703
G1 X66.743 Y85.998 E.02224
G1 X65.932 Y86.815 E.03897
;WIDTH:0.41646
G1 F5621.896
G1 X65.866 Y86.888 E.00306
;WIDTH:0.38292
G1 F6176.47
G1 X65.795 Y86.869 E.00208
G1 X65.814 Y86.94 E.00208
G1 X65.855 Y86.929 E.0012
;WIDTH:0.449999
G1 F5158.703
G1 X65.998 Y87.318 E.01403
G1 X67.318 Y85.998 E.06319
G1 X67.894 Y85.998 E.0195
G1 X65.998 Y87.894 E.09076
G1 X65.998 Y88.47 E.0195
G1 X68.47 Y85.998 E.11833
G1 X69.046 Y85.998 E.0195
G1 X65.998 Y89.046 E.14591
G1 X65.998 Y89.621 E.01946
G1 X69.621 Y85.998 E.17343
G1 X70.197 Y85.998 E.0195
G1 X65.998 Y90.197 E.201
G1 X65.998 Y90.773 E.0195
G1 X70.773 Y85.998 E.22858
G1 X71.348 Y85.998 E.01946
G1 X65.998 Y91.348 E.2561
G1 X65.998 Y91.924 E.0195
G1 X71.924 Y85.998 E.28367
G1 X72.5 Y85.998 E.0195
G1 X65.998 Y92.5 E.31125
G1 X65.998 Y93.075 E.01946
G1 X73.075 Y85.998 E.33877
G1 X73.651 Y85.998 E.0195
G1 X65.998 Y93.651 E.36634
G1 X65.939 Y94.121 E.01603
;WIDTH:0.38292
G1 F6176.47
G1 X65.898 Y94.132 E.0012
G1 X65.879 Y94.061 E.00208
G1 X65.95 Y94.08 E.00208
;WIDTH:0.41646
G1 F5621.896
G1 X66.087 Y94.041 E.00442
;WIDTH:0.449999
G1 F5158.703
G1 X66.224 Y94.002 E.00482
G1 X74.227 Y85.998 E.38312
G1 X74.803 Y85.998 E.0195
G1 X66.799 Y94.002 E.38315
G1 X67.375 Y94.002 E.0195
G1 X75.378 Y85.998 E.38312
G1 X75.954 Y85.998 E.0195
G1 X67.951 Y94.002 E.38312
G1 X68.527 Y94.002 E.0195
G1 X76.53 Y85.998 E.38312
G1 X77.105 Y85.998 E.01946
G1 X69.102 Y94.002 E.38312
G1 X69.678 Y94.002 E.0195
G1 X77.681 Y85.998 E.38312
G1 X78.257 Y85.998 E.0195
G1 X70.254 Y94.002 E.38312
G1 X70.829 Y94.002 E.01946
G1 X78.832 Y85.998 E.38312
G1 X79.408 Y85.998 E.0195
G1 X71.405 Y94.002 E.38312
G1 X71.981 Y94.002 E.0195
G1 X79.984 Y85.998 E.38312
G1 X80.559 Y85.998 E.01946
G1 X72.556 Y94.002 E.38312
G1 X73.132 Y94.002 E.0195
G1 X81.135 Y85.998 E.38312
G1 X81.711 Y85.998 E.0195
G1 X73.708 Y94.002 E.38312
G1 X74.283 Y94.002 E.01946
G1 X82.287 Y85.998 E.38315
G1 X82.862 Y85.998 E.01946
G1 X74.859 Y94.002 E.38312
G1 X75.435 Y94.002 E.0195
G1 X83.438 Y85.998 E.38312
G1 X84.014 Y85.998 E.0195
G1 X76.011 Y94.002 E.38312
G1 X76.586 Y94.002 E.01946
G1 X84.589 Y85.998 E.38312
G1 X85.165 Y85.998 E.0195
G1 X77.162 Y94.002 E.38312
G1 X77.738 Y94.002 E.0195
G1 X85.741 Y85.998 E.38312
G1 X86.316 Y85.998 E.01946
G1 X78.313 Y94.002 E.38312
G1 X78.889 Y94.002 E.0195
G1 X86.892 Y85.998 E.38312
G1 X87.468 Y85.998 E.0195
G1 X79.465 Y94.002 E.38312
G1 X80.04 Y94.002 E.01946
G1 X88.044 Y85.998 E.38315
G1 X88.619 Y85.998 E.01946
G1 X80.616 Y94.002 E.38312
G1 X81.192 Y94.002 E.0195
G1 X89.195 Y85.998 E.38312
G1 X89.771 Y85.998 E.0195
G1 X81.768 Y94.002 E.38312
G1 X82.343 Y94.002 E.01946
G1 X90.346 Y85.998 E.38312
G1 X90.922 Y85.998 E.0195
G1 X82.919 Y94.002 E.38312
G1 X83.495 Y94.002 E.0195
G1 X91.498 Y85.998 E.38312
G1 X92.073 Y85.998 E.01946
G1 X84.07 Y94.002 E.38312
G1 X84.646 Y94.002 E.0195
G1 X92.649 Y85.998 E.38312
G1 X93.225 Y85.998 E.0195
G1 X85.222 Y94.002 E.38312
G1 X85.797 Y94.002 E.01946
G1 X93.801 Y85.998 E.38315
G1 X94.376 Y85.998 E.01946
G1 X86.373 Y94.002 E.38312
G1 X86.949 Y94.002 E.0195
G1 X94.952 Y85.998 E.38312
G1 X95.528 Y85.998 E.0195
G1 X87.524 Y94.002 E.38315
G1 X88.1 Y94.002 E.0195
G1 X96.103 Y85.998 E.38312
G1 X96.679 Y85.998 E.0195
G1 X88.676 Y94.002 E.38312
G1 X89.252 Y94.002 E.0195
G1 X97.255 Y85.998 E.38312
G1 X97.83 Y85.998 E.01946
G1 X89.827 Y94.002 E.38312
G1 X90.403 Y94.002 E.0195
G1 X98.406 Y85.998 E.38312
G1 X98.982 Y85.998 E.0195
G1 X90.979 Y94.002 E.38312
G1 X91.554 Y94.002 E.01946
G1 X99.557 Y85.998 E.38312
G1 X100.133 Y85.998 E.0195
G1 X92.13 Y94.002 E.38312
G1 X92.706 Y94.002 E.0195
G1 X100.709 Y85.998 E.38312
G1 X101.285 Y85.998 E.0195
G1 X93.281 Y94.002 E.38315
G1 X93.857 Y94.002 E.0195
G1 X101.86 Y85.998 E.38312
G1 X102.436 Y85.998 E.0195
G1 X94.433 Y94.002 E.38312
G1 X95.009 Y94.002 E.0195
G1 X103.012 Y85.998 E.38312
G1 X103.587 Y85.998 E.01946
G1 X95.584 Y94.002 E.38312
G1 X96.16 Y94.002 E.0195
G1 X104.163 Y85.998 E.38312
G1 X104.739 Y85.998 E.0195
G1 X96.736 Y94.002 E.38312
G1 X97.311 Y94.002 E.01946
G1 X105.314 Y85.998 E.38312
G1 X105.89 Y85.998 E.0195
G1 X97.887 Y94.002 E.38312
G1 X98.463 Y94.002 E.0195
G1 X106.466 Y85.998 E.38312
G1 X107.042 Y85.998 E.0195
G1 X99.038 Y94.002 E.38315
G1 X99.614 Y94.002 E.0195
G1 X107.617 Y85.998 E.38312
G1 X108.193 Y85.998 E.0195
G1 X100.19 Y94.002 E.38312
G1 X100.766 Y94.002 E.0195
G1 X108.769 Y85.998 E.38312
G1 X109.344 Y85.998 E.01946
G1 X101.341 Y94.002 E.38312
G1 X101.917 Y94.002 E.0195
M73 P3 R58
G1 X109.92 Y85.998 E.38312
G1 X110.496 Y85.998 E.0195
G1 X102.493 Y94.002 E.38312
G1 X103.068 Y94.002 E.01946
G1 X111.071 Y85.998 E.38312
G1 X111.647 Y85.998 E.0195
G1 X103.644 Y94.002 E.38312
G1 X104.22 Y94.002 E.0195
G1 X112.223 Y85.998 E.38312
G1 X112.799 Y85.998 E.0195
G1 X104.795 Y94.002 E.38315
G1 X105.371 Y94.002 E.0195
G1 X113.374 Y85.998 E.38312
G1 X113.95 Y85.998 E.0195
G1 X105.947 Y94.002 E.38312
G1 X106.522 Y94.002 E.01946
G1 X114.002 Y86.522 E.35806
G1 X114.002 Y87.098 E.0195
G1 X107.098 Y94.002 E.33049
G1 X107.674 Y94.002 E.0195
G1 X114.002 Y87.674 E.30292
G1 X114.002 Y88.25 E.0195
G1 X108.25 Y94.002 E.27534
G1 X108.825 Y94.002 E.01946
G1 X114.002 Y88.825 E.24782
G1 X114.002 Y89.401 E.0195
G1 X109.401 Y94.002 E.22025
G1 X109.977 Y94.002 E.0195
G1 X114.002 Y89.977 E.19267
G1 X114.002 Y90.552 E.01946
G1 X110.552 Y94.002 E.16515
G1 X111.128 Y94.002 E.0195
G1 X114.002 Y91.128 E.13758
G1 X114.002 Y91.704 E.0195
G1 X111.704 Y94.002 E.11
G1 X112.279 Y94.002 E.01946
G1 X114.002 Y92.279 E.08248
G1 X114.002 Y92.855 E.0195
G1 X112.855 Y94.002 E.05491
G1 X113.431 Y94.002 E.0195
G1 X114.002 Y93.431 E.02733
M204 P1000
; stop printing object AIl_In_One_3D_printer_test_nano.stl id:0 copy 0
;LAYER_CHANGE
;Z:0.6
;HEIGHT:0.2
;BEFORE_LAYER_CHANGE
G92 E0.0
;0.6


G1 E-2.24 F2700
;WIPE_START
G1 F7200
G1 X113.431 Y94.002 E-.28768
